front/public/static/landing/logos/gray/persona.svg

<svg fill="none" height="240" viewBox="0 0 600 240" width="600" xmlns="http://www.w3.org/2000/svg" xmlns:xlink="http://www.w3.org/1999/xlink"><clipPath id="a"><path d="m66.2412 61.3565h466.517v117.643h-466.517z"/></clipPath><g clip-path="url(#a)" fill="#364153"><path d="m135.28 145.328v4.991c0 2.422-1.349 3.78-3.783 3.78h-61.473c-2.4235 0-3.7828-1.348-3.7828-3.78v-4.991c0-2.422 1.3487-3.781 3.7828-3.781h61.483c2.424 0 3.783 1.348 3.783 3.781zm-4.194-37.762-16.027-9.2454c-.527-.3054-.527-1.053 0-1.3584l16.027-9.2455c1.812-1.0425 2.423-3.3592 1.38-5.1598l-2.497-4.3174c-1.043-1.8112-3.351-2.422-5.163-1.3795l-16.027 9.2455c-.526.3054-1.18-.0737-1.18-.6739v-18.5121c0-2.085-1.696-3.7803-3.783-3.7803h-4.9943c-2.0864 0-3.7828 1.6953-3.7828 3.7803v18.5016c0 .6002-.6533.9793-1.1802.6739l-16.0268-9.2455c-1.8123-1.0425-4.1199-.4212-5.1631 1.3795l-2.4973 4.3173c-1.0431 1.8112-.4215 4.1174 1.3804 5.1598l16.0268 9.2456c.5268.3054.5268 1.053 0 1.3584l-16.0268 9.2449c-1.8124 1.043-2.4235 3.349-1.3804 5.161l2.4973 4.317c1.0432 1.811 3.3508 2.422 5.1631 1.379l16.0268-9.245c.5269-.306 1.1802.074 1.1802.674v18.501c0 2.085 1.6964 3.781 3.7828 3.781h4.9943c2.087 0 3.783-1.696 3.783-3.781v-18.501c0-.6.654-.98 1.18-.674l16.027 9.245c1.812 1.043 4.12.421 5.163-1.379l2.497-4.317c1.043-1.812.422-4.118-1.38-5.161z"/><path d="m172.95 109.923c3.298-5.212 10.105-8.824 17.133-8.824 14.362 0 25.753 11.91 25.753 27.115 0 15.206-11.38 27.116-25.753 27.116-7.028 0-13.835-3.612-17.133-8.824v29.052c0 .432-.348.78-.78.78h-10.99c-.432 0-.78-.348-.78-.78v-72.405c0-.432.348-.78.78-.78h10.99c.432 0 .78.348.78.78zm14.899 2.233c-8.724 0-15.426 6.918-15.426 16.058 0 9.151 6.702 16.059 15.426 16.059 8.831 0 15.532-6.908 15.532-16.059 0-9.15-6.701-16.058-15.532-16.058z"/><path d="m263.948 135.988c1.728 1.117 6.269 4.033 7.945 5.108.358.231.463.695.252 1.063-5.058 8.519-13.603 13.163-23.35 13.163-14.583 0-26.816-11.805-26.816-27.116 0-15.31 12.233-27.115 26.606-27.115 15.099 0 25.763 11.678 25.552 29.422 0 .431-.358.779-.79.779h-39.556c1.275 8.192 7.554 13.289 15.004 13.289 6.934 0 10.843-3.033 14.057-8.34.232-.379.727-.505 1.096-.263zm-29.631-13.31h27.344c-.854-5.844-5.427-10.951-13.087-10.951-6.702 0-12.244 4.254-14.257 10.951z"/><path d="m314.065 103.125c.116-.39-.084-.79-.453-.948-1.117-.464-2.423-.769-4.468-.769-6.491 0-11.706 3.928-14.256 9.035v-7.297c0-.432-.348-.779-.78-.779h-10.99c-.432 0-.78.347-.78.779v50.113c0 .432.348.779.78.779h10.99c.432 0 .78-.347.78-.779v-25.589c0-8.403 5.215-13.931 12.77-13.931.886 0 1.729.063 2.54.189.4.064.78-.168.885-.547.6-2.053 2.392-8.235 2.982-10.256z"/><path d="m315.991 140.927 9.41-3.412c.411-.147.853.074 1.001.474 1.696 4.486 5.111 7.55 9.957 7.55 3.826 0 7.345-2.338 7.345-6.592 0-9.677-25.331-3.19-25.331-21.692 0-8.93 7.555-16.164 18.197-16.164 8.725 0 15.268 4.749 17.734 11.573.147.411-.095.874-.516 1l-9.473 2.938c-.4.126-.811-.095-.959-.495-1.254-3.464-3.72-5.244-7.207-5.244-3.299 0-6.07 2.127-6.07 5.529 0 9.245 25.542 2.874 25.542 21.797 0 9.993-9.157 17.122-19.578 17.122-9.409 0-17.818-5.223-20.526-13.426-.126-.4.095-.832.485-.969z"/><path d="m388.305 101.091c14.9 0 27.46 11.805 27.46 27.115 0 15.311-12.56 27.116-27.46 27.116-14.899 0-27.354-11.805-27.354-27.116 0-15.31 12.455-27.115 27.354-27.115zm0 43.185c8.83 0 15.532-6.908 15.532-16.059s-6.702-16.058-15.532-16.058c-8.724 0-15.426 6.918-15.426 16.058 0 9.151 6.702 16.059 15.426 16.059z"/><path d="m446.631 112.296c-6.923 0-11.495 5.317-11.495 13.499v27.505c0 .432-.348.779-.78.779h-10.99c-.432 0-.78-.347-.78-.779v-50.113c0-.432.348-.779.78-.779h10.99c.432 0 .78.347.78.779v6.128c3.403-4.78 8.724-8.192 15.963-8.192 11.707 0 18.513 8.087 18.513 18.712v33.455c0 .431-.347.779-.779.779h-10.99c-.432 0-.78-.348-.78-.779v-30.053c0-6.698-3.825-10.952-10.432-10.952z"/><path d="m531.77 103.155v50.113c0 .432-.348.78-.778.78h-10.99c-.434 0-.783-.348-.783-.78v-6.771c-3.193 5.213-10 8.825-17.026 8.825-14.36 0-25.752-11.91-25.752-27.116 0-15.205 11.392-27.115 25.752-27.115 7.026 0 13.833 3.623 17.026 8.825v-6.771c0-.432.349-.78.783-.78h10.99c.43 0 .778.348.778.78zm-27.459 41.121c8.831 0 15.533-6.908 15.533-16.059s-6.702-16.058-15.533-16.058c-8.726 0-15.428 6.918-15.428 16.058 0 9.151 6.702 16.059 15.428 16.059z"/></g></svg>

<svg width="600" height="240" viewBox="0 0 600 240" fill="none" xmlns="http://www.w3.org/2000/svg">
<g clip-path="url(#clip0_1992_2632)">
<path d="M135.28 145.328V150.319C135.28 152.741 133.931 154.099 131.497 154.099H70.024C67.6005 154.099 66.2412 152.751 66.2412 150.319V145.328C66.2412 142.906 67.5899 141.547 70.024 141.547H131.507C133.931 141.547 135.29 142.895 135.29 145.328H135.28ZM131.086 107.566L115.059 98.3206C114.532 98.0152 114.532 97.2676 115.059 96.9622L131.086 87.7167C132.898 86.6742 133.509 84.3575 132.466 82.5569L129.969 78.2395C128.926 76.4283 126.618 75.8175 124.806 76.86L108.779 86.1055C108.253 86.4109 107.599 86.0318 107.599 85.4316V66.9195C107.599 64.8345 105.903 63.1392 103.816 63.1392H98.8217C96.7353 63.1392 95.0389 64.8345 95.0389 66.9195V85.4211C95.0389 86.0213 94.3856 86.4004 93.8587 86.095L77.8319 76.8495C76.0196 75.807 73.712 76.4283 72.6688 78.229L70.1715 82.5463C69.1284 84.3575 69.75 86.6637 71.5519 87.7061L87.5787 96.9517C88.1055 97.2571 88.1055 98.0047 87.5787 98.3101L71.5519 107.555C69.7395 108.598 69.1284 110.904 70.1715 112.716L72.6688 117.033C73.712 118.844 76.0196 119.455 77.8319 118.412L93.8587 109.167C94.3856 108.861 95.0389 109.241 95.0389 109.841V128.342C95.0389 130.427 96.7353 132.123 98.8217 132.123H103.816C105.903 132.123 107.599 130.427 107.599 128.342V109.841C107.599 109.241 108.253 108.861 108.779 109.167L124.806 118.412C126.618 119.455 128.926 118.833 129.969 117.033L132.466 112.716C133.509 110.904 132.888 108.598 131.086 107.555V107.566Z" fill="#364153"/>
<path d="M172.95 109.923C176.248 104.711 183.055 101.099 190.083 101.099C204.445 101.099 215.836 113.009 215.836 128.214C215.836 143.42 204.456 155.33 190.083 155.33C183.055 155.33 176.248 151.718 172.95 146.506V175.558C172.95 175.99 172.602 176.338 172.17 176.338H161.18C160.748 176.338 160.4 175.99 160.4 175.558V103.153C160.4 102.721 160.748 102.373 161.18 102.373H172.17C172.602 102.373 172.95 102.721 172.95 103.153V109.923ZM187.849 112.156C179.125 112.156 172.423 119.074 172.423 128.214C172.423 137.365 179.125 144.273 187.849 144.273C196.68 144.273 203.381 137.365 203.381 128.214C203.381 119.064 196.68 112.156 187.849 112.156Z" fill="#364153"/>
<path d="M263.948 135.988C265.676 137.105 270.217 140.021 271.893 141.096C272.251 141.327 272.356 141.791 272.145 142.159C267.087 150.678 258.542 155.322 248.795 155.322C234.212 155.322 221.979 143.517 221.979 128.206C221.979 112.896 234.212 101.091 248.585 101.091C263.684 101.091 274.348 112.769 274.137 130.513C274.137 130.944 273.779 131.292 273.347 131.292H233.791C235.066 139.484 241.345 144.581 248.795 144.581C255.729 144.581 259.638 141.548 262.852 136.241C263.084 135.862 263.579 135.736 263.948 135.978V135.988ZM234.317 122.678H261.661C260.807 116.834 256.234 111.727 248.574 111.727C241.872 111.727 236.33 115.981 234.317 122.678Z" fill="#364153"/>
<path d="M314.065 103.125C314.181 102.735 313.981 102.335 313.612 102.177C312.495 101.713 311.189 101.408 309.144 101.408C302.653 101.408 297.438 105.336 294.888 110.443V103.146C294.888 102.714 294.54 102.367 294.108 102.367H283.118C282.686 102.367 282.338 102.714 282.338 103.146V153.259C282.338 153.691 282.686 154.038 283.118 154.038H294.108C294.54 154.038 294.888 153.691 294.888 153.259V127.67C294.888 119.267 300.103 113.739 307.658 113.739C308.544 113.739 309.387 113.802 310.198 113.928C310.598 113.992 310.978 113.76 311.083 113.381C311.683 111.328 313.475 105.146 314.065 103.125Z" fill="#364153"/>
<path d="M315.991 140.927L325.401 137.515C325.812 137.368 326.254 137.589 326.402 137.989C328.098 142.475 331.513 145.539 336.359 145.539C340.185 145.539 343.704 143.201 343.704 138.947C343.704 129.27 318.373 135.757 318.373 117.255C318.373 108.325 325.928 101.091 336.57 101.091C345.295 101.091 351.838 105.84 354.304 112.664C354.451 113.075 354.209 113.538 353.788 113.664L344.315 116.602C343.915 116.728 343.504 116.507 343.356 116.107C342.102 112.643 339.636 110.863 336.149 110.863C332.85 110.863 330.079 112.99 330.079 116.392C330.079 125.637 355.621 119.266 355.621 138.189C355.621 148.182 346.464 155.311 336.043 155.311C326.634 155.311 318.225 150.088 315.517 141.885C315.391 141.485 315.612 141.053 316.002 140.916L315.991 140.927Z" fill="#364153"/>
<path d="M388.305 101.091C403.205 101.091 415.765 112.896 415.765 128.206C415.765 143.517 403.205 155.322 388.305 155.322C373.406 155.322 360.951 143.517 360.951 128.206C360.951 112.896 373.406 101.091 388.305 101.091ZM388.305 144.276C397.135 144.276 403.837 137.368 403.837 128.217C403.837 119.066 397.135 112.159 388.305 112.159C379.581 112.159 372.879 119.077 372.879 128.217C372.879 137.368 379.581 144.276 388.305 144.276Z" fill="#364153"/>
<path d="M446.631 112.296C439.708 112.296 435.136 117.613 435.136 125.795V153.3C435.136 153.732 434.788 154.079 434.356 154.079H423.366C422.934 154.079 422.586 153.732 422.586 153.3V103.187C422.586 102.755 422.934 102.408 423.366 102.408H434.356C434.788 102.408 435.136 102.755 435.136 103.187V109.315C438.539 104.535 443.86 101.123 451.099 101.123C462.806 101.123 469.612 109.21 469.612 119.835V153.29C469.612 153.721 469.265 154.069 468.833 154.069H457.843C457.411 154.069 457.063 153.721 457.063 153.29V123.237C457.063 116.539 453.238 112.285 446.631 112.285V112.296Z" fill="#364153"/>
<path d="M531.77 103.155V153.268C531.77 153.7 531.422 154.048 530.992 154.048H520.002C519.568 154.048 519.219 153.7 519.219 153.268V146.497C516.026 151.71 509.219 155.322 502.193 155.322C487.833 155.322 476.441 143.412 476.441 128.206C476.441 113.001 487.833 101.091 502.193 101.091C509.219 101.091 516.026 104.714 519.219 109.916V103.145C519.219 102.713 519.568 102.365 520.002 102.365H530.992C531.422 102.365 531.77 102.713 531.77 103.145V103.155ZM504.311 144.276C513.142 144.276 519.844 137.368 519.844 128.217C519.844 119.066 513.142 112.159 504.311 112.159C495.585 112.159 488.883 119.077 488.883 128.217C488.883 137.368 495.585 144.276 504.311 144.276Z" fill="#364153"/>
</g>
<defs>
<clipPath id="clip0_1992_2632">
<rect width="466.517" height="117.643" fill="white" transform="translate(66.2412 61.3565)"/>
</clipPath>
</defs>
</svg>
